X:1
T:Beale St. Blues
T:Beale St. Blues
T:W.C. Handy Published in 1917 
C:Year Here
%%score 1 2 3 4
L:1/8
M:4/4
K:Bb
V:1 treble transpose=-2 nm="B♭ Trumpet" snm="B♭ Tpt."
V:2 treble transpose=-2 nm="B♭ Clarinet" snm="B♭ Cl."
V:3 treble-8 nm="Acoustic Guitar" snm="Guit."
V:4 treble nm="P1"
V:1
[K:C] cd^d ||"C" ec"G7"d^d"C" ec"G7"=d^d |"C" e_e"G7"dc-"C" c3 z |:"C""^A"!f! ecAc- c3 ^d | %4
w: ||||
w: ||||
w: ||||
w: ||||
 ec Ac- c2 cc |"F" f2"C" e2"Dm" d2"C" c2 |"G7" B2"D7" AG-"G7" G3 ^d |"C" ecAc-"C7" c3 g | %8
w: ||||
w: ||||
w: ||||
w: ||||
"F" z fgf-"Fm" fcd^d |"C" ecd^d ec=d^d | e_e"G7"dc-"C" c z2 z |: %11
w: |||
w: |* * * e- * * * *||
w: |||
w: |||
"C""_Vocal Accompaniment Mute in"!p! E2 Ac- c3 A | z c2 c- c2 AA |"F" c2"C" A2"Dm" B2"C" A2 | %14
w: see prettty Browns * in|beautiful gowns, * You'll see|tail- or- mades and|
w: see Nose rest- * and|lin fe's, * You'll see|Jugs that tell of|
w: Beale could talk, * If|Street talk, * Mar- ried|men would pack their|
w: |||
"G7" G2"D7" z A"G7" D3 B |"C" E2 G2 E3 G |"F" F2 FD"Fm" A4 |"C" z E2 E2 E2 E |1 %18
w: hand- downs. * You'll|meet honest men And|pick- pockets skilled, *|business never closes someone|
w: by- days. * And|plac- once * es,|Now a sham, *|en e- to the|
w: bags walk. * Ex-|cept or * Who|nev- drink booze, *|man the who these|
w: |||* * til *|
 E2"G7" D2"C" C3 ^D :|2 E2"G7" D2"C" C3 ^D :|3 e_ed"G7"c-"_MUTE OUT" c"C"c"C7"cA || %21
w: bod- gets * You'll|* * salem. *|Beale * Street Blues. * * * *|
w: * * * If|New Jeru- * If||
w: |||
w: |||
[K:F]"F""^B""_Instrumental \"B\""!f! cAc z c4 | z"C7" d cd ^G2 =GF- |"F" F8- |"F7" F4 z c cc | %25
w: ||||
w: ||||
w: ||||
w: ||||
"^Ab" cBcB- B4 |"Bb7" z F GF _A2 GF- |"F" F8- | F4 z c cc |"C7" _e2 c d2 c- c2 | z f2 d _A2 GF- | %31
w: ||||||
w: |||* Be- * *|||
w: ||||||
w: ||||||
"Bb" F8- |"F" F6!p! cc |:"F""^VOCAL \"B\" - 2 verses" z Acc- c4 | z"C7" d cd ^G2 =GF- |"F" F8- | %36
w: |* Well I'd|rather be here, *|Than an- y place I know.||
w: ||gwine the river, *|* May- be bye and bye.||
w: |||||
w: |||||
"F7" F4 z c cc |"^Ab" cBcB- B4 |"Bb7" z F GF _A2 GF- |"F" F8- | F4 z c cc |"C7" _e2 c d2 c- c2 | %42
w: * I said I'd|rath- er be here, *|Than an- y place I know.||* It's gon- na|take the ser- geant *|
w: * I said I'm|goin' to the river, *|And there's a rea- son why:||* Be- cause the|riv- er's wet and *|
w: ||||||
w: ||||||
 z f2 d _A2 GF- |"Bb" F8- |1"F" F6 cc :|2"F" F6 cc || %46
w: For to make me go.||* Well I'm||
w: Beale Street's done gone dry.||* * I'd||
w: ||||
w: ||||
!mf!"^Instrumental \"B\" Clarinet lead" F4 A4 | c2 B2 B2 G2 | F2 F2 A2 A2 | c B2 c z c cc | %50
w: ||||
w: ||||
w: ||||
w: ||||
 B2 d2 B2 F2 | F3 F D4 |"F" F4 z F3 | z F A2 z c cc | G2 c2 d2 c2 | c2 B2 ^G2 EF |"Bb" F4 B4 || %57
w: |||||||
w: |||* * Be- * *||||
w: |||||||
w: |||||||
 F4 A4 | c2 B2 B2 G2 | F2 F2 A2 A2 | c B2 c z c cc | B2 d2 B2 F2 | F3 F D4 |"F" F4 z F3 | %64
w: |||||||
w: |||||||
w: |||||||
w: |||||||
 z F A2 z c cc | G2 c2 d2 c2 | c2 B2 ^G2 EF |"Bb"!f! F GAB cdef- | f2 z B GFBd | f4 z f f2 |] %70
w: ||||||
w: ||||||
w: ||||||
w: ||||||
V:2
[K:C] ef^f || gef^f ge=f^f | g^f=fe- e3 f |:"^Instrumental \"A\"" CG,CE C E2 F | CG,CG E G2 F | %5
 CGce Bdce | BGFE BGB^F | CG,CG E G2 E | FAcf aa^gf | cGBg e g2 f | gefe- egef |: CG,CE C E2 F | %12
 CG,CG E G2 F | CGce Bdce | BGFE BGB^F | CG,CG E G2 E | FAcf aa^gf | cGcg e g2 f |1 GEFE- EGEF :|2 %19
 GEFD E,G,CE :|3 gefd EGce ||[K:F] f3 c Acfa | b2 ea =b2 _b2 | z a c'2 af^dA | c B2 ^d f^dAE | %25
 FBfb- bfgb | ^gdBd- dBda | z a c'2 af^dA | cAcA BGAE | g c'2 f g e2 g- | gc' f'4 c'g | %31
 fcdc dcBA- | AFGF Bgaa |: F3 C A,CFA | B2 EA B2 B2 | z A c2 AF^DA, | C B,2 ^D F^DA,E, | %37
 F,B,FB- BFGB | ^GDB,D- DB,DA | z A c2 AF^DA, | CA,CA, B,G,A,E, | G c2 F G E2 G- | Gc f4 cG | %43
 FCDC DCB,A,- |1 A,F,G,F, B,GAA :|2 AFGF Bgaa || %46
"F""_Instrumental \"B\" clarinet lead" c'ac' z c'4 | z"C7" d' c'd' ^g2 =gf | z a c'2 af^dA | %49
 c B2 ^d f^dAE |"^Ab\n" c'bc'b- b d'c'd' |"Bb7" z f gf _a2 gf | z a c'2 af^dA | c'ac'a bgae | %54
"C7" _e'2 c' d'2 c'- c'2 | z f'2 d' _a2 gf | fc'd'c' fdBA ||"F" cAc z c4 | z"C7" d cd ^G2 =GF | %59
 z A c2 AF^DA, | C B,2 ^D F^DA,C |"^Ab\n" cBcB- B4 |"Bb7" z F GF _A2 GF | z A c2 AF^DA, | %64
 cAcA BGAE |"C7" _e2 c d2 c- c2 | z f2 d ^G2 =gf | f'c'd'c' d'c'ba | fedc Bcdf | %69
 a2 !~(!d'4 !~)!g'2 |] %70
V:3
 z2 z || [B,DF]2 [FAc]2 [B,DF]2 [FAc]2 | [B,DF]2 [FAc]2 [B,DF]4 |: [B,DF]6 [B,DF]2 | %4
 [B,DF]6 [B,DF]2 | [EGB]2 [B,DF]2 [CEG]2 [B,DF]2 | [FAc]2 [C=EGB]2 [FAc]2 [FAc]2 | %7
 [B,DF]2 [B,DF]2 [B,DF_A]2 [B,DFA]2 | [EGB]2 [EGB]2 [E_GB]2 [EGB]2 | %9
 [B,DF]2 [B,DF]2 [B,DF]2 [B,DF]2 | [FAc]2 [FAc]2 [B,DF]2 [B,DF]2 |: %11
 [B,DF]2 [B,DF]2 [B,DF]2 [B,DF]2 | [B,DF]2 [B,DF]2 [B,DF]2 [B,DF]2 | %13
 [EGB]2 [B,DF]2 [CEG]2 [B,DF]2 | [FAc]2 [C=EGB]2 [FAc]2 [FAc]2 | %15
 [B,DF]2 [B,DF]2 [B,DF_A]2 [B,DFA]2 | [EGB]2 [EGB]2 [E_GB]2 [EGB]2 | %17
 [B,DF]2 [B,DF]2 [B,DF]2 [B,DF]2 |1 [FAc]2 [FAc]2 [B,DF]2 [B,DF]2 :|2 %19
 [FAc]2 [FAc]2 [B,DF]2 [B,DF]2 :|3 [FAc]2 [FAc]2 [B,DF]2 [B,DF_A]2 || %21
[K:Eb] [EGB]2 [EGB]2 [EGB]2 [EGB]2 | [B,DFA]2 [B,DFA]2 [B,DFA]2 [B,DFA]2 | %23
 [EGB]2 [EGB]2 [EGB]2 [EGB]2 | [EGB_d]2 [EGBd]2 [EGBd]2 [EGBd]2 | [Ace]2 [Ace]2 [Ace]2 [Ace]2 | %26
 [Ace^f]2 [Acef]2 [Acef]2 [Acef]2 | [EGB]2 [EGB]2 [EGB]2 [EGB]2 | [EGB]2 [EGB]2 [EGB]2 [EGB]2 | %29
 [B,DFA]2 [B,DFA]2 [B,DFA]2 [B,DFA]2 | [B,DFA]2 [B,DFA]2 [B,DFA]2 [B,DFA]2 | %31
 [Ace]2 [Ace]2 [Ace]2 [Ace]2 | [EGB]2 [EGB]2 [EGB]2 [EGB]2 |: [EGB]2 [EGB]2 [EGB]2 [EGB]2 | %34
 [B,DFA]2 [B,DFA]2 [B,DFA]2 [B,DFA]2 | [EGB]2 [EGB]2 [EGB]2 [EGB]2 | %36
 [EGB_d]2 [EGBd]2 [EGBd]2 [EGBd]2 | [Ace]2 [Ace]2 [Ace]2 [Ace]2 | %38
 [Ace^f]2 [Acef]2 [Acef]2 [Acef]2 | [EGB]2 [EGB]2 [EGB]2 [EGB]2 | [EGB]2 [EGB]2 [EGB]2 [EGB]2 | %41
 [B,DFA]2 [B,DFA]2 [B,DFA]2 [B,DFA]2 | [B,DFA]2 [B,DFA]2 [B,DFA]2 [B,DFA]2 | %43
 [Ace]2 [Ace]2 [Ace]2 [Ace]2 |1 [EGB]2 [EGB]2 [EGB]2 [EGB]2 :|2 [EGB]2 [EGB]2 [EGB]2 [EGB]2 || %46
 [EGB]2 [EGB]2 [EGB]2 [EGB]2 | [B,DFA]2 [B,DFA]2 [B,DFA]2 [B,DFA]2 | [EGB]2 [EGB]2 [EGB]2 [EGB]2 | %49
 [EGB_d]2 [EGBd]2 [EGBd]2 [EGBd]2 | [Ace]2 [Ace]2 [Ace]2 [Ace]2 | %51
 [Ace^f]2 [Acef]2 [Acef]2 [Acef]2 | [EGB]2 [EGB]2 [EGB]2 [EGB]2 | [EGB]2 [EGB]2 [EGB]2 [EGB]2 | %54
 [B,DFA]2 [B,DFA]2 [B,DFA]2 [B,DFA]2 | [B,DFA]2 [B,DFA]2 [B,DFA]2 [B,DFA]2 | %56
 [Ace]2 [Ace]2 [Ace]2 [Ace]2 || [EGB]2 [EGB]2 [EGB]2 [EGB]2 | [B,DFA]2 [B,DFA]2 [B,DFA]2 [B,DFA]2 | %59
 [EGB]2 [EGB]2 [EGB]2 [EGB]2 | [EGB_d]2 [EGBd]2 [EGBd]2 [EGBd]2 | [Ace]2 [Ace]2 [Ace]2 [Ace]2 | %62
 [Ace^f]2 [Acef]2 [Acef]2 [Acef]2 | [EGB]2 [EGB]2 [EGB]2 [EGB]2 | [EGB]2 [EGB]2 [EGB]2 [EGB]2 | %65
 [B,DFA]2 [B,DFA]2 [B,DFA]2 [B,DFA]2 | [B,DFA]2 [B,DFA]2 [B,DFA]2 [B,DFA]2 | %67
 [Ace]2 [Ace]2 [Ace]2 [Ace]2 | [EGB]2 [EGB]2 [EGB]2 [EGB]2 | [EGB]2 [EGB]2 [EGB]2 [EGB]2 |] %70
V:4
 Bc^c ||"Bb" dB"F7"c^c"Bb" dB"F7"=c^c |"Bb" d_d"F7"cB-"Bb" B3 ^c |: %3
w: |||
w: |||
w: |||
w: |||
"Bb""^Instrumental \"A\"\n" dBGB- B3 ^c | dB GB- B2 B z |"Eb" e2"Bb" d2 c2 B2 | %6
w: |||
w: |||
w: |||
w: |||
"F7" A2"C7" GF-"F7" F3 ^c |"Bb" dBGB-"Bb7" B3 f |"Eb" fefe-"Ebm" eBc^c |"Bb" dBc^c dB=c^c | %10
w: ||||
w: ||||
w: ||||
w: ||||
 d_d"F7"cB-"Bb" B3 ^c |:"Bb" dBGB- B3 ^c | dB GB- B2 BB |"Eb" e2"Bb" d2 c2 B2 | %14
w: * * * * * You'll|see pret- ty Browns * in|beau- ti- ful gowns, * You'll see|tail- or- mades and|
w: |see Hog- Nose rest- * and|Chit- lin Ca- fe's, * You'll see|Jugs that tell of|
w: |Beale Street could talk, * If|Beale Street could talk, * mar- ried|men would pack their|
w: |* * * rants * *|||
"F7" A2"C7" GF-"F7" F3 ^c |"Bb" dBGB-"Bb7" B3 f |"Eb" fefe-"Ebm" eBc^c |"Bb" dBc^c dB=c^c |1 %18
w: hand- me- downs. * You'll|meet hon- est men, * and|pick- pock- ets skilled, * You'll find that|bus'- ness nev- er clos- es 'til some-|
w: by- gone days. * And|plac- es, once plac- * es,|Now just a sham, * * You'll see|Gold- en balls e- nough to pave the|
w: bags and walk. * Ex-|cept one or two, * who|nev- er drink booze, * * And the|blind man on the corner who sings these|
w: ||||
 d_d"F7"cB-"Bb" B3 ^c :|2 D2"F7" C2"Bb" B,3 ^C :|3 d_dc"F7"B- BB"Bb7"BG || %21
w: bod- y gets killed. lem. You'll|* * salem. *|Beale * Street Blues. * * Well I'd|
w: New * * * * *|* Jeru- * If||
w: |||
w: |||
[K:Eb]"Eb""^Instrumental \"B\"" BGBB- B4 | z"Bb7" c Bc _G2 FE- |"Eb" E8- |"Eb7" E4 z B BB | %25
w: ||||
w: ||||
w: ||||
w: ||||
"^Ab" BABA- A4 |"Ab7" z E FE _G2 FE- |"Eb" E8- | E4 z B BB |"Bb7" _d2 B c2 B- B2 | z e2 c _G2 FE- | %31
w: ||||||
w: ||||||
w: ||||* * be * *||
w: ||||||
"Ab" E8- |"Eb" E6"F7" Bd |:"Eb" BGBB- B4 | z"Bb7" c Bc _G2 FE- |"Eb" E8- |"Eb7" E4 z B BB | %37
w: |* Well I'd|rath- er be here, *|Than an- y place I know.||* I mean I'd|
w: ||goin' to the river, *|* May- be bye and bye.||* I said I'm|
w: ||||||
w: ||||||
"^Ab" BABA- A4 |"Ab7" z E FE _G2 FE- |"Eb" E8- | E4 z B BB |"Bb7" _d2 B c2 B z2 | z e2 c _G2 FE- | %43
w: rath- er be here, *|Than an- y place I know.||* It's gon- na|take the ser- geant|For to make me go.|
w: goin' to the river, *|And there's a rea- son why:||* Be- cause the|riv- er's wet and|Beale Street's done gone dry.|
w: ||||||
w: ||||||
"Ab" E8- |1"Eb" E6"F7" BB :|2"Eb" E6"F7" B2 ||"Eb""^Instrumental \"B\" Clarinet lead" BGBB- B4 | %47
w: |* Well I'm|* I'd||
w: ||||
w: ||||
w: ||||
 z"Bb7" c Bc _G2 FE- |"Eb" E8- |"Eb7" E4 z B BB |"Ab" BABA- A4 |"Ab7" z E FE _G2 FE- |"Eb" E8- | %53
w: ||||||
w: ||||||
w: ||||||
w: ||||||
 E4 z B BB |"Bb7" _d2 B c2 B- B2 | z e2 c _G2 FE |"Ab" z2 z2 z2 AA ||"Eb" BGBB- B4 | %58
w: |||Well, I'd||
w: |||||
w: |* * be * *|||rath- er be there, *|
w: |||||
 z"Bb7" c Bc _G2 FE- |"Eb" E8- |"Eb7" E4 z B BB |"^Ab" BABA- A4 |"Ab7" z E FE _G2 FE- |"Eb" E8- | %64
w: ||||||
w: Than * * * * *||* That is, *||||
w: * an- y place I know||* * * I'd|rath- er be there, *|Than an- y place I know||
w: ||||||
 E4 z B BB |"Bb7" _d2 B c2 B- B2 | e e2 c _G2 FE- |"Ab" E8- |"Eb" E6 z z | z8 |] %70
w: ||but * * * * *||||
w: * Be- cause New||||||
w: |York may be fine *|* Beale Street's paved with gold.||||
w: ||||||

